X:1
T:Title
%%score { ( 1 3 ) | ( 2 4 ) }
L:1/8
Q:1/4=100
M:4/4
K:Eb
V:1 treble nm="Grand Piano"
V:3 treble 
V:2 bass 
V:4 bass 
V:1
 [B,EG]2 [B,EG][B,FA] [EGB]2 [B,EG][G,E] | [EG]2 [FA]>[DF] E4 | c2 cd e2 dc | B2 B>G [DF]4 | %4
w: D.~B.~Towner * * * * *||||
 G2 FE A2 GF | B2 AG c4 | [Ad]>[Ac] [AB]2 [Ge] [EB]2 [B,EG] | [DF]4 [G,E]4 | %8
w: ||||
 [B,DF]>[B,DF] [B,EG]2 [DFB] [DFA]3 | [EG]2 [B,EG]>[B,FA] c B2 B | B2 FB d2 d>c | [DB]6 [B,DA]2 | %12
w: ||||
 [B,EG]2 [B,EG][B,FA] [B,GB] [B,EG]2 [B,EG] | [B,FA]2 [DGB][DAc] [EGB]3 [EGB] | %14
w: ||
 [EAc]>[EAc] [Ad]2 [Ge] [EGB]2 [B,EG] | [DF]4 [G,E]4 |] %16
w: ||
V:2
 E,2 E,E, E,2 E,E, | [B,,B,]2 [B,,B,]>[B,,A,] [E,G,]4 | [A,E]2 [A,E][A,B,E] [A,CE]2 [A,B,E][A,E] | %3
 [E,G,E]2 [E,G,E]>[E,B,E] [B,,B,]4 | [E,B,E]2 [E,A,E][E,G,] [F,B,D]2 [F,B,D][F,B,D] | %5
 [G,B,E]2 [F,B,E][E,B,E] [A,E]4 | [F,B,]>[F,B,] [F,B,]2 [E,B,] [E,G,]2 E, | z2 A,2 E,4 | %8
 B,,>B,, B,,2 B,, B,,3 | E,2 E,>E, [E,A,E] [E,G,E]2 [E,G,E] | %10
 [F,D]2 [F,B,D][F,DF] [F,B,F]2 [F,=A,F]>[F,E] | [B,,F,]6 B,,2 | E,2 E,E, E, E,2 E, | %13
 D,2 B,,B,, E,3 E, | A,>A, [F,B,]2 [E,B,] E,2 E, | z2 A,2 E,4 |] %16
V:3
 x8 | x8 | x8 | x8 | x8 | x8 | x8 | B,2 z2 z4 | x8 | x8 | x8 | x8 | x8 | x8 | x8 | B,2 z2 z4 |] %16
V:4
 x8 | x8 | x8 | x8 | x8 | x8 | x8 | B,,4 z4 | x8 | x8 | x8 | x8 | x8 | x8 | x8 | B,,4 z4 |] %16

